!!!OTL: SCHWAENE KOMMEN GEZOGEN
!!!ARE: Europa, Mitteleuropa, Deutschland
!!!SCT: F0313
!!!YEM: Copyright 1995, estate of Helmut Schaffrath.
**kern
*ICvox
*Ivox
*M6/8
*k[b-]
*F:
=1
{[4.a
4a]
8a
=2
4a
16b-
16a
4g
8a
=3
[4.cc
4cc]
8bn
=4
4.b-
4.r}
=5
{4.a
4cc
8cc
=6
4bn
8ff
4ee
8dd
=7
4.cc
4.r}
=8
{4.a
4a
8a
=9
4a
16b-
16a
4g
8a
=10
4cc
8b-
4b-
8r}
=11
{4.a
4g
8f
=12
4a
8g
4f
8e
=13
4.f
4.r}
=14
{8cc
8cc
8cc
8cc#
8cc#
8cc#
=15
4.dd
4dd}
{8ff
=16
8.ff
16ee
8dd
8dd
8cc
8bn
=17
4.cc
4.r}
=18
{8dd
8ee
8ff
8ff
8dd
8b-
=19
4a
8cc
4cc}
{8ee
=20
4.ff
4cc
8a
=21
[4.cc
8cc]
8c
8c
=22
4.f
4.r}
==
!!!AGN: Jugend - Lied, Natur; Schwestern - Liebe
!!!ONB: ESAC (Essen Associative Code) Database: FINK
!!!AMT: compound duple
!!!AIN: vox
!!!EED: Helmut Schaffrath
!!!EEV: 1.0
*-
